X: 37079
T: Silver Spire, The
R: reel
M: 4/4
K: Dmajor
|:D2 DF ADFA|dcde fdAF|~G2 BG FADF|~E3F GFEF|
D2 DF ADFA|dcde fdAF|GdBG FdAF|~E3F ~D3A:|
|:ABcd efge|fdef gfec|dB ~B2 Bcde|fdgf e3c|
d2 fd ceAc|dcdB AFDF|GdBG FdAF|E=cGE D3A:|

